static/logos/posthog-wordmark-color.svg

<svg width="100" height="20" viewBox="0 0 100 20" fill="none" xmlns="http://www.w3.org/2000/svg">
<g clip-path="url(#clip0_1_1568)">
<path d="M6.93989 10.9591C6.70517 11.4286 6.03523 11.4286 5.8005 10.9591L5.23912 9.83637C5.14946 9.65707 5.14946 9.44599 5.23912 9.26669L5.8005 8.14389C6.03523 7.67446 6.70517 7.67446 6.93989 8.14389L7.50129 9.26669C7.5909 9.44599 7.5909 9.65707 7.50129 9.83637L6.93989 10.9591Z" fill="#1D4AFF"/>
<path d="M6.93989 17.3265C6.70517 17.796 6.03523 17.796 5.8005 17.3265L5.23912 16.2038C5.14946 16.0245 5.14946 15.8134 5.23912 15.6341L5.8005 14.5113C6.03523 14.0418 6.70517 14.0418 6.93989 14.5113L7.50129 15.6341C7.5909 15.8134 7.5909 16.0245 7.50129 16.2038L6.93989 17.3265Z" fill="#1D4AFF"/>
<path d="M0 14.9096C0 14.3422 0.686076 14.058 1.08733 14.4592L4.00668 17.3786C4.40794 17.7799 4.12375 18.4659 3.5563 18.4659H0.636942C0.285169 18.4659 0 18.1808 0 17.829V14.9096ZM0 11.8346C0 12.0035 0.0671064 12.1655 0.186556 12.285L6.18096 18.2794C6.30041 18.3988 6.46242 18.4659 6.63134 18.4659H9.92382C10.4913 18.4659 10.7755 17.7799 10.3742 17.3786L1.08733 8.09172C0.686076 7.69045 0 7.97465 0 8.5421V11.8346ZM0 5.46706C0 5.63599 0.0671064 5.798 0.186556 5.91745L12.5485 18.2794C12.6679 18.3988 12.8299 18.4659 12.9989 18.4659H16.2913C16.8588 18.4659 17.143 17.7799 16.7417 17.3786L1.08733 1.72421C0.686083 1.32296 0 1.60714 0 2.17459V5.46706ZM6.36752 5.46706C6.36752 5.63599 6.43465 5.798 6.55408 5.91745L18.0152 17.3786C18.4165 17.7799 19.1025 17.4957 19.1025 16.9282V13.6357C19.1025 13.4668 19.0354 13.3048 18.916 13.1853L7.45484 1.7242C7.05357 1.32296 6.36752 1.60714 6.36752 2.17459V5.46706ZM13.8224 1.72421C13.4211 1.32296 12.735 1.60714 12.735 2.17459V5.46706C12.735 5.63599 12.8022 5.798 12.9216 5.91745L18.0152 11.0111C18.4165 11.4124 19.1025 11.1282 19.1025 10.5607V7.26822C19.1025 7.0993 19.0354 6.93726 18.916 6.81783L13.8224 1.72421Z" fill="#F9BD2B"/>
<path d="M27.0827 14.9877L21.0873 8.99229C20.686 8.59102 20 8.87522 20 9.44267V17.8289C20 18.1807 20.2852 18.4659 20.6369 18.4659H29.9239C30.2757 18.4659 30.5609 18.1807 30.5609 17.8289V17.0652C30.5609 16.7134 30.2745 16.4325 29.9257 16.3871C28.8552 16.2477 27.8538 15.7588 27.0827 14.9877ZM23.0564 16.4283C22.494 16.4283 22.0376 15.9718 22.0376 15.4095C22.0376 14.8471 22.494 14.3906 23.0564 14.3906C23.6188 14.3906 24.0752 14.8471 24.0752 15.4095C24.0752 15.9718 23.6188 16.4283 23.0564 16.4283Z" fill="black"/>
<path d="M0 17.8289C0 18.1807 0.285169 18.4659 0.636943 18.4659H3.5563C4.12375 18.4659 4.40794 17.7798 4.00669 17.3785L1.08733 14.4592C0.686076 14.0579 0 14.3421 0 14.9096V17.8289Z" fill="#1D4AFF"/>
<path d="M6.36752 7.0044L1.08733 1.72421C0.686076 1.32296 0 1.60714 0 2.17459V5.46706C0 5.63599 0.0671064 5.798 0.186556 5.91745L6.36752 12.0984V7.0044Z" fill="#1D4AFF"/>
<path d="M1.08733 8.09178C0.686076 7.69051 0 7.97471 0 8.54217V11.8347C0 12.0036 0.0671064 12.1655 0.186556 12.285L6.36752 18.466V13.372L1.08733 8.09178Z" fill="#1D4AFF"/>
<path d="M12.7347 7.26822C12.7347 7.0993 12.6677 6.93726 12.5482 6.81783L7.45453 1.72421C7.05332 1.32296 6.36719 1.60714 6.36719 2.17459V5.46706C6.36719 5.63599 6.43434 5.798 6.55377 5.91745L12.7347 12.0984V7.26822Z" fill="#F54E00"/>
<path d="M6.36719 18.4659H9.92351C10.491 18.4659 10.7752 17.7799 10.3739 17.3786L6.36719 13.3719V18.4659Z" fill="#F54E00"/>
<path d="M6.36719 7.00452V11.8347C6.36719 12.0036 6.43434 12.1656 6.55377 12.2851L12.7347 18.4661V13.6359C12.7347 13.4669 12.6677 13.3049 12.5482 13.1855L6.36719 7.00452Z" fill="#F54E00"/>
<path d="M37.9922 15.9236H40.6087V11.5847H42.7947C45.196 11.5847 46.7361 10.1606 46.7361 7.95796C46.7361 5.75545 45.196 4.33124 42.7947 4.33124H37.9922V15.9236ZM40.6087 9.34904V6.56694H42.5298C43.5234 6.56694 44.1196 7.09682 44.1196 7.95796C44.1196 8.81917 43.5234 9.34904 42.5298 9.34904H40.6087Z" fill="black"/>
<path d="M51.4676 16.0561C54.0179 16.0561 55.8727 14.2344 55.8727 11.7503C55.8727 9.26624 54.0179 7.44459 51.4676 7.44459C48.8842 7.44459 47.0625 9.26624 47.0625 11.7503C47.0625 14.2344 48.8842 16.0561 51.4676 16.0561ZM49.4803 11.7503C49.4803 10.4255 50.2752 9.51465 51.4676 9.51465C52.6434 9.51465 53.4383 10.4255 53.4383 11.7503C53.4383 13.0752 52.6434 13.986 51.4676 13.986C50.2752 13.986 49.4803 13.0752 49.4803 11.7503Z" fill="black"/>
<path d="M60.0621 16.0561C62.0162 16.0561 63.341 14.8306 63.341 13.3898C63.341 10.0115 58.8531 11.1045 58.8531 9.77962C58.8531 9.41535 59.234 9.1835 59.7805 9.1835C60.3436 9.1835 61.0226 9.53121 61.2378 10.293L63.192 9.48153C62.8111 8.27261 61.4035 7.44459 59.6977 7.44459C57.8595 7.44459 56.7168 8.53758 56.7168 9.84586C56.7168 13.0089 61.1385 12.1312 61.1385 13.4395C61.1385 13.9032 60.7079 14.2179 60.0621 14.2179C59.1347 14.2179 58.4888 13.572 58.2901 12.7937L56.3359 13.5554C56.7665 14.814 58.0251 16.0561 60.0621 16.0561Z" fill="black"/>
<path d="M69.6359 15.8408L69.4703 13.7376C69.1887 13.8867 68.8244 13.9363 68.5263 13.9363C67.9301 13.9363 67.5327 13.5058 67.5327 12.7605V9.59745H69.5531V7.57707H67.5327V5.1593H65.0983V7.57707H63.7734V9.59745H65.0983V13.0752C65.0983 15.0956 66.4728 16.0561 68.2779 16.0561C68.7747 16.0561 69.2384 15.9733 69.6359 15.8408Z" fill="black"/>
<path d="M78.1266 4.33124V8.83567H73.5228V4.33124H70.9062V15.9236H73.5228V11.0713H78.1266V15.9236H80.7598V4.33124H78.1266Z" fill="black"/>
<path d="M86.5692 16.0561C89.1195 16.0561 90.9743 14.2344 90.9743 11.7503C90.9743 9.26624 89.1195 7.44459 86.5692 7.44459C83.9857 7.44459 82.1641 9.26624 82.1641 11.7503C82.1641 14.2344 83.9857 16.0561 86.5692 16.0561ZM84.5819 11.7503C84.5819 10.4255 85.3768 9.51465 86.5692 9.51465C87.745 9.51465 88.5399 10.4255 88.5399 11.7503C88.5399 13.0752 87.745 13.986 86.5692 13.986C85.3768 13.986 84.5819 13.0752 84.5819 11.7503Z" fill="black"/>
<path d="M95.6692 15.6586C96.5801 15.6586 97.3915 15.3439 97.8221 14.7975V15.5924C97.8221 16.5197 97.0769 17.1657 95.9342 17.1657C95.1227 17.1657 94.4106 16.7682 94.2947 16.0892L92.0756 16.4369C92.3737 18.0102 93.9801 19.0701 95.9342 19.0701C98.5011 19.0701 100.207 17.5631 100.207 15.3274V7.57707H97.8055V8.28917C97.3584 7.7758 96.5966 7.44459 95.6195 7.44459C93.3011 7.44459 91.8438 9.03439 91.8438 11.5516C91.8438 14.0688 93.3011 15.6586 95.6692 15.6586ZM94.2119 11.5516C94.2119 10.3096 94.9406 9.51465 96.0667 9.51465C97.2093 9.51465 97.938 10.3096 97.938 11.5516C97.938 12.7936 97.2093 13.5885 96.0667 13.5885C94.9406 13.5885 94.2119 12.7936 94.2119 11.5516Z" fill="black"/>
</g>
<defs>
<clipPath id="clip0_1_1568">
<rect width="100" height="19.1083" fill="white"/>
</clipPath>
</defs>
</svg>

<svg xmlns="http://www.w3.org/2000/svg" width="320" height="64" fill="none" viewBox="0 0 100 20"><g clip-path="url(#a)"><path fill="#1D4AFF" d="M6.94 10.96a.637.637 0 0 1-1.14 0l-.56-1.124a.637.637 0 0 1 0-.57l.56-1.122a.637.637 0 0 1 1.14 0L7.5 9.267c.09.179.09.39 0 .57l-.561 1.122ZM6.94 17.326a.637.637 0 0 1-1.14 0l-.56-1.122a.637.637 0 0 1 0-.57l.56-1.123a.637.637 0 0 1 1.14 0l.561 1.123c.09.18.09.39 0 .57l-.561 1.122Z"/><path fill="#F9BD2B" d="M0 14.91a.637.637 0 0 1 1.087-.45l2.92 2.919a.637.637 0 0 1-.45 1.087H.636A.637.637 0 0 1 0 17.829v-2.92Zm0-3.075c0 .168.067.33.187.45l5.994 5.994c.12.12.281.187.45.187h3.293a.637.637 0 0 0 .45-1.087L1.087 8.092A.637.637 0 0 0 0 8.542v3.293Zm0-6.368c0 .169.067.331.187.45L12.549 18.28c.119.12.28.187.45.187h3.292a.637.637 0 0 0 .45-1.087L1.088 1.724A.637.637 0 0 0 0 2.174v3.293Zm6.368 0c0 .169.067.331.186.45L18.015 17.38a.637.637 0 0 0 1.087-.45v-3.293a.637.637 0 0 0-.186-.45L7.455 1.723a.637.637 0 0 0-1.087.45v3.293Zm7.454-3.743a.637.637 0 0 0-1.087.45v3.293c0 .169.067.331.187.45l5.093 5.094a.637.637 0 0 0 1.087-.45V7.268a.637.637 0 0 0-.186-.45l-5.094-5.094Z"/><path fill="#000" d="m27.083 14.988-5.996-5.996a.637.637 0 0 0-1.087.45v8.387c0 .352.285.637.637.637h9.287a.637.637 0 0 0 .637-.637v-.764c0-.352-.287-.633-.635-.678a4.92 4.92 0 0 1-2.843-1.4Zm-4.027 1.44a1.02 1.02 0 1 1 .001-2.038 1.02 1.02 0 0 1 0 2.038Z"/><path fill="#1D4AFF" d="M0 17.829c0 .352.285.637.637.637h2.92a.637.637 0 0 0 .45-1.088l-2.92-2.919A.637.637 0 0 0 0 14.91v2.92ZM6.368 7.004l-5.28-5.28A.637.637 0 0 0 0 2.174v3.293c0 .169.067.331.187.45l6.18 6.181V7.004ZM1.087 8.092A.637.637 0 0 0 0 8.542v3.293c0 .169.067.33.187.45l6.18 6.181v-5.094l-5.28-5.28Z"/><path fill="#F54E00" d="M12.735 7.268a.637.637 0 0 0-.187-.45L7.455 1.724a.637.637 0 0 0-1.088.45v3.293c0 .169.067.331.187.45l6.18 6.181v-4.83ZM6.367 18.466h3.557a.637.637 0 0 0 .45-1.087l-4.007-4.007v5.094ZM6.367 7.005v4.83c0 .169.067.33.187.45l6.18 6.181v-4.83a.636.636 0 0 0-.186-.45l-6.18-6.181Z"/><path fill="#000" d="M37.992 15.924h2.617v-4.34h2.186c2.401 0 3.941-1.423 3.941-3.626s-1.54-3.627-3.941-3.627h-4.803v11.593Zm2.617-6.575V6.567h1.92c.994 0 1.59.53 1.59 1.391s-.596 1.391-1.59 1.391h-1.92ZM51.468 16.056c2.55 0 4.405-1.822 4.405-4.306s-1.855-4.305-4.405-4.305c-2.584 0-4.406 1.821-4.406 4.305s1.822 4.306 4.406 4.306ZM49.48 11.75c0-1.325.795-2.235 1.988-2.235 1.175 0 1.97.91 1.97 2.235 0 1.325-.795 2.236-1.97 2.236-1.193 0-1.988-.91-1.988-2.236ZM60.062 16.056c1.954 0 3.279-1.225 3.279-2.666 0-3.379-4.488-2.286-4.488-3.61 0-.365.381-.596.928-.596.563 0 1.242.347 1.457 1.109l1.954-.811c-.38-1.21-1.788-2.037-3.494-2.037-1.839 0-2.981 1.093-2.981 2.4 0 3.164 4.422 2.286 4.422 3.595 0 .463-.431.778-1.077.778-.927 0-1.573-.646-1.772-1.424l-1.954.761c.43 1.259 1.69 2.501 3.726 2.501ZM69.636 15.84l-.166-2.102c-.281.149-.646.198-.944.198-.596 0-.993-.43-.993-1.175V9.597h2.02v-2.02h-2.02V5.16h-2.435v2.418h-1.325v2.02h1.325v3.478c0 2.02 1.375 2.981 3.18 2.981.497 0 .96-.083 1.358-.215ZM78.127 4.331v4.505h-4.604V4.33h-2.617v11.593h2.617V11.07h4.604v4.853h2.633V4.33h-2.633ZM86.57 16.056c2.55 0 4.404-1.822 4.404-4.306S89.12 7.445 86.57 7.445c-2.583 0-4.405 1.821-4.405 4.305s1.822 4.306 4.405 4.306Zm-1.988-4.306c0-1.325.795-2.235 1.987-2.235 1.176 0 1.97.91 1.97 2.235 0 1.325-.794 2.236-1.97 2.236-1.192 0-1.987-.91-1.987-2.236ZM95.67 15.659c.91 0 1.721-.315 2.152-.862v.795c0 .928-.745 1.574-1.888 1.574-.811 0-1.523-.398-1.64-1.077l-2.218.348c.298 1.573 1.904 2.633 3.858 2.633 2.567 0 4.273-1.507 4.273-3.743v-7.75h-2.401v.712c-.448-.513-1.21-.844-2.186-.844-2.319 0-3.776 1.59-3.776 4.107 0 2.517 1.457 4.107 3.825 4.107Zm-1.458-4.107c0-1.242.729-2.037 1.855-2.037 1.142 0 1.871.795 1.871 2.037s-.729 2.037-1.871 2.037c-1.126 0-1.855-.795-1.855-2.037Z"/></g><defs><clipPath id="a"><path fill="#fff" d="M0 0h100v19.108H0z"/></clipPath></defs></svg>
